X:80
T:To Jordan Came Our Lord, The Christ
%%stretchlast false
M:4/4
L:1/4
K:Ab clef=C1
"^♯iii"[B,,D,B,]2 "^ii"[B,,F,B,D] "^V¹"[G,,G,B,E] | "^vi"[F,,A,CF] "^iii"[C,G,CE] "^vi¹"[A,,F,CA]/ "^♯vii"[B,,F,CA]/ "^III"[C,=E,CG] | "^♯vii"[F,,F,A,F]3 "^ii"[B,,D,B,F] | "^I"[A,,E,CA] "^iii"[C,E,EG] "^IV"[D,A,DF] "^I"[A,,A,CE] | "^ii"[B,,F,B,D] [F,,F,B,C]/ "^VI"[F,,F,=A,C]/ "^♯iii"[B,,D,B,]2 | [B,,D,B,]2 "^ii"[B,,F,B,D] "^V¹"[G,,G,B,E] | "^vi"[F,,A,CF] "^iii"[C,G,CE] "^vi¹"[A,,F,CA]/ "^♯vii"[B,,F,CA]/ "^III"[C,=E,CG] | "^♯vii"[F,,F,A,F]3 "^ii"[B,,D,B,F] | "^I"[A,,E,CA] "^iii"[C,E,EG] "^IV"[D,A,DF] "^I"[A,,A,CE] | "^ii"[B,,F,B,D] [F,,F,B,C]/ "^VI"[F,,F,=A,C]/ "^♯iii"[B,,D,B,]2 | "^ii"[B,,B,] "^♯iii"[A,,D,B,C] "^V¹"[G,,E,B,E] "^v¹"[A,,E,A,E] | "^vi7"[F,,E,C] "^ii7"[B,,A,DF] "^ii"[C,B,CF] "^V"[F,,G,A,E] | "^♯vii"[F,,F,A,F]2 "^vi"[F,CF] "^v"[E,A,EF] | "^viiø7²"[D,G,FB] "^III"[C,F,=EB] [C,G,=Ec]/ "^vi+"[D,G,Fc]/ [B,,G,Dc]/ "^♯vii"[B,,F,FA]/ | [C,F,FB]/ "^vimaj7²"[C,F,=EA]/ [F,,CFG] "^♯vii"[F,,A,F] "^IV"[D,A,F] | "^iii+"[A,,C] "^vi7²"[C,F,EF] "^♯iii"[D,E,DA] "^Imaj7"[A,,E,CG] | "^vi"[F,,A,CF] "^v"[B,,A,B,E] "^VI"[F,,A,=A,F] "^VI+"[F,,F,=A,D] | "^V/ii"[F,,F,=A,C] "^ii"[B,,F,C] [_G,,F,B,C] "^♯iii"[E,,D,B,]/ [E,,D,B,C]/ | "^♯vi"[D,,_G,D] "^♯iii°"[D,,G,DE]/ "^v¹"[_G,,G,B,E]/ "^v"[E,,A,B,F]/ "^♯vii"[B,,A,B,F]/ [F,,A,B,F]/ "^VI+"[F,,G,=A,D]/ | "^v²"[B,,_G,B,E]/ "^ii"[B,,F,B,D]/ [B,,F,B,C] "^♯iii"[B,,D,B,D] [D,B,] | "^v"[E,E] [A,,F,EB] "^ii"[B,,F,DB] "^vii"[F,,G,CB] | [C,A,Cc] "^ii"[F,,F,=A,B] "^VI"[F,,F,=A,A] [F,,=E,=A,G] | [F,,F,=A,F]4 |]
